X: 15
T: Ukrainer Chosid'l   [Em]
S: transcription by Steve Rauch
R: khusidl
M: 4/4
L: 1/16
K: Em
"B"\
|: "Em"E2 e4 Bd "Am"c2B2 A4 | "B7"G2 A4 B2 "Em"G2F2 E4 |\
[1 "Em"E2 e4 Bd "Am"cdcB A^GAc | "Em"B4 e4 g4 e4 :|\
[2 "Am"G2 A4 G2 "B7"BAG2 GFE^D | "Em"E8 z4 |]
"C"\
|: "D7"D4 |\
"G"d4 c2B2 B^ABd G4 | "G"d4 c2B2 B^ABd G4 |\
"G"B2B2 A2G2 B2B2 A2G2 | "G"GFG2 B^AB2 d^cd2 g4 |
"G"z2g2 f2e2 d2c2 B4 | "C"z2e2 d2c2 "G"B2A2 G4 |\
"Am"G2 A4 G2 "B7"BAG2 GFE^D |[1 "Em"E8 z4 :|[2 "Em"E8 z2B,2E2G2 |]
"D"\
|::: "Em"B4 ^A2G2 A2B2 A2G2 | "Em"^A2B2 A2G2 BAG2 GFE2 |\
[1,3 "Em"z2B2 ^A2G2 A2B2 ^c2d2 | ^c2 B12 z2 :|\
[2,4 "Em"z2G2 F2E2 "B7"^D2B,2 D2F2 | "Em"E12 z4 :|

%%sep 1 1 500

